X:1
T:6 Lieder, Op.1
T:Nachts
T:5. Nachts
T:Peter Cornelius
T:Peter Cornelius
T:6 Lieder, Op.1
T:OpenScore (CC0)
T:OpenScore (CC0)
C:Peter Cornelius
Z:Peter Cornelius
Z:OpenScore (CC0)
%%score 1 { ( 2 5 ) | ( 3 4 ) }
L:1/8
Q:1/4=65
M:2/4
K:G
V:1 treble nm="Voice"
V:2 treble nm="Piano"
V:5 treble 
V:3 bass 
V:4 bass 
V:1
!p!"^Träumerisch, ruhig" d2 G3/2 A/ | F3 E | D!<(! E F3/2 B/!<)! | A2- A z | d2 G3/2 A/ | F3 z | %6
w: 1. Nachts bin vom|Traum schlaf-|trun- ken ich er-|wacht; *|wach war ich|kaum,|
w: 2. Flieht einst auch|dich treu-|los die süs- se|Ruh', *|denk auch an|mich,|
"^belebter"[Q:1/4=80]"^T"[Q:1/4=80]"^T"[Q:1/4=80]"^T"[Q:1/4=65]"^T" z!<(! E F G!<)! | %7
w: da hab' ich|
w: sprich auch der|
 B A (G F/) d/ |[Q:1/4=65]"^T"!<(! d4-!<)! |!>(! d2 c2-!>)! | c2 z2[Q:1/4=80]"_T" | z4 | %12
w: gleich an dich * ge-|dacht.|_ _|||
w: Lie- be Wört- * lein|du!|_ _|||
!<(! d2 e3/2 e/!<)! |!>(! A3 B!>)! |!p! c B A3/2 G/ | G3 z | z!<(! d e3/2 e/!<)! | (e2 A2-) | %18
w: Die Lip- pe|sprach ein|wun- der- heim- lich|Wort|dem Her- zen|nach _|
w: Sanft lockst du|dann die|Ru- he, die dich|mied,|in Trau- mes-|bann _|
"^etwas bewegter"[Q:1/4=80]"^T" A!<(! A B c!<)! | (d2 B) z | z!p!"^ruhig"[Q:1/4=65]"^T" B B3/2 A/ | %21
w: _ dann träumt' ich|se- lig|* wei- ter|
w: _ wiegt dich aufs|Neu *|der Lie- be|
 G4- | G4- | G2 z2 | z4 | z4 :| %26
w: fort.|_||||
w: Lied.|_||||
V:2
!p! ([Gd]2 [DG]>[EA] | [CF]3 [CE] |!<(! [CD][CE][CF]>[FB]!<)! |!>(! (([EA]2 [CF])))!>)! z | %4
w: ||||
 ([Gd]2 [DG]>[EA] | F3 (E | [CD]))!<(!([CE][CF][DG]!<)! |!>(! [FB][EA][DG]!>)![CF]) | %8
w: ||belebter * * *||
"_ruhig" (G2 =F>F) | (=F2 (E2) |!p!!p! [CE])!>![CE](!>![CE]!>![C_E]) | (D2 G) z | %12
w: ||* bewegt * *||
!<(!!<(! (d2 e>e!<)!!<)! | A3 B |!>(! cBA!>)!F | G4) | G"_stärker" [G-d][Ge]>[Ge] |!<(! A4!<)! | %18
w: ||||||
 (A2!<(! Bc)!<)! | (d2 B) z | z2!p! (([CF]2 | [B,G]2))!<(! (B,>B,!<)! |!>(! D2 C2-)!>)! | %23
w: |||||
 C"^dim."(.B,.A,.^A,) | (B,4 | .D) z !fermata!z2 :| %26
w: |||
V:3
 (B,2 B,>C | A,3 G, | F,G,A,>D | (C2 A,)) z | (B,2 B,>C | A,3 (G, | F,))(G,A,B, | DCB,A,) | %8
 ([G,,G,]2- [G,,G,]>[G,,G,]) | G,4- | !>!G,G,G,^F, | G,3 z | B,2 ^A,>B, | =C3 ^G, | A,DCA, | %15
 (G,D,C,>B,,) | [G,,B,,] [G,B,][^C,^A,]>[C,B,] | (=C3 ^C | D=CB,A,) | (G,2 D) z | z2 ([D,,D,-]2 | %21
 [G,,D,]2) [G,,=F,]>[G,,F,] | E,3 (!>!^D, | E,)(.=D,.C,.^C,) | (D,4 | .B,,) z !fermata!z2 :| %26
V:4
 D,4 | D,4 | D,4- | D,2- D, x | D,2 D,>D, | D,3 D,- | D, D,3- | D,4 | x4 | C,4- | %10
 C,(!>!C,!>!C,!>!D,) | G,3 x | (G,2 ^C,>C, | D,3 D, | D,4 | G,,4) | x4 | D,4 | D,2 D,D, | %19
 D,2- D, z | x4 | x4 | G,,4 | G,,G,,G,,G,, | G,,4- | .G,, x3 :| %26
V:5
 x4 | x4 | x4 | x4 | x4 | C3 C- | x4 | x4 | B,2- B,>B, | (B,2 C2-) | x4 | (C2 B,) x | G2 G>G | %13
 G2 F=F | E=GEC | (CB,A,>G,) | G, x3 | G4 | GF GA | (B2 G) x | x4 | x4 | x4 | x4 | (B,4 | %25
 .G,) x3 :| %26

